icon-themes/sifr_svg/cmd/lc_movedownsubitems.svg

<svg viewBox="0 0 24 24" xmlns="http://www.w3.org/2000/svg"><path d="m2 2v2h20v-2zm-1 4v.4121094.5878906c0 .30945.0903.55232.28125.75l3.8828125 4.25h1.6152344l3.9394531-4.25c.19095-.19768.28125-.395782.28125-.75v-.5878906-.4121094h-1c-.455742 0-.660756.3378988-1 .6835938l-3 3.3164062-3-3.3164062c-.330518-.3857981-.515682-.6835938-1-.6835938zm11 0v2h10v-2zm0 10v2h10v-2zm0 4v2h10v-2z" fill="#555753"/></svg>

<svg xmlns="http://www.w3.org/2000/svg" viewBox="0 0 24 24">
  <path
     style="fill:#555753"
     d="M 2,2 V 4 H 22 V 2 Z M 1,6 V 6.4121094 7 C 1,7.30945 1.0903,7.55232 1.28125,7.75 L 5.1640625,12 H 6.7792969 L 10.71875,7.75 C 10.9097,7.55232 11,7.354218 11,7 V 6.4121094 6 H 10 C 9.544258,6 9.339244,6.3378988 9,6.6835938 L 6,10 3,6.6835938 C 2.669482,6.2977957 2.484318,6 2,6 Z M 12,6 V 8 H 22 V 6 Z m 0,10 v 2 h 10 v -2 z m 0,4 v 2 h 10 v -2 z"
     />
</svg>
